public/primaries/Keypad.svg

<svg id="Layer_1" data-name="Layer 1" xmlns="http://www.w3.org/2000/svg" width="64" height="64" viewBox="0 0 64 64"><defs><style>.cls-1{fill-rule:evenodd}</style></defs><title>Icons 100</title><path class="cls-1" d="M40 17a2 2 0 0 1 2-2h8a2 2 0 0 1 2 2v6a2 2 0 0 1-2 2h-8a2 2 0 0 1-2-2v-6zm2 22h8a2 2 0 0 1 2 2v6a2 2 0 0 1-2 2h-8a2 2 0 0 1-2-2v-6a2 2 0 0 1 2-2zm-2-10a2 2 0 0 1 2-2h8a2 2 0 0 1 2 2v6a2 2 0 0 1-2 2h-8a2 2 0 0 1-2-2v-6zM26 17a2 2 0 0 1 2-2h8a2 2 0 0 1 2 2v6a2 2 0 0 1-2 2h-8a2 2 0 0 1-2-2v-6zm2 22h8a2 2 0 0 1 2 2v6a2 2 0 0 1-2 2h-8a2 2 0 0 1-2-2v-6a2 2 0 0 1 2-2zm-2-10a2 2 0 0 1 2-2h8a2 2 0 0 1 2 2v6a2 2 0 0 1-2 2h-8a2 2 0 0 1-2-2v-6zM12 17a2 2 0 0 1 2-2h8a2 2 0 0 1 2 2v6a2 2 0 0 1-2 2h-8a2 2 0 0 1-2-2v-6zm2 22h8a2 2 0 0 1 2 2v6a2 2 0 0 1-2 2h-8a2 2 0 0 1-2-2v-6a2 2 0 0 1 2-2zm-2-10a2 2 0 0 1 2-2h8a2 2 0 0 1 2 2v6a2 2 0 0 1-2 2h-8a2 2 0 0 1-2-2v-6z"/></svg>

<svg id="Layer_1" data-name="Layer 1" xmlns="http://www.w3.org/2000/svg" width="64" height="64" viewBox="0 0 64 64">
  <defs>
    <style>
      .cls-1 {
        fill-rule: evenodd;
      }
    </style>
  </defs>
  <title>Icons 100</title>
  <path class="cls-1" d="M40,17a2,2,0,0,1,2-2h8a2,2,0,0,1,2,2v6a2,2,0,0,1-2,2H42a2,2,0,0,1-2-2V17Zm2,22h8a2,2,0,0,1,2,2v6a2,2,0,0,1-2,2H42a2,2,0,0,1-2-2V41A2,2,0,0,1,42,39ZM40,29a2,2,0,0,1,2-2h8a2,2,0,0,1,2,2v6a2,2,0,0,1-2,2H42a2,2,0,0,1-2-2V29ZM26,17a2,2,0,0,1,2-2h8a2,2,0,0,1,2,2v6a2,2,0,0,1-2,2H28a2,2,0,0,1-2-2V17Zm2,22h8a2,2,0,0,1,2,2v6a2,2,0,0,1-2,2H28a2,2,0,0,1-2-2V41A2,2,0,0,1,28,39ZM26,29a2,2,0,0,1,2-2h8a2,2,0,0,1,2,2v6a2,2,0,0,1-2,2H28a2,2,0,0,1-2-2V29ZM12,17a2,2,0,0,1,2-2h8a2,2,0,0,1,2,2v6a2,2,0,0,1-2,2H14a2,2,0,0,1-2-2V17Zm2,22h8a2,2,0,0,1,2,2v6a2,2,0,0,1-2,2H14a2,2,0,0,1-2-2V41A2,2,0,0,1,14,39ZM12,29a2,2,0,0,1,2-2h8a2,2,0,0,1,2,2v6a2,2,0,0,1-2,2H14a2,2,0,0,1-2-2V29Z"/>
</svg>
